src/GFX/branch_icon_Stocks.svg

<?xml version="1.0" encoding="UTF-8" standalone="no"?>
<!DOCTYPE svg PUBLIC "-//W3C//DTD SVG 1.1//EN" "http://www.w3.org/Graphics/SVG/1.1/DTD/svg11.dtd">
<svg width="100%" height="100%" viewBox="0 0 160 160" version="1.1" xmlns="http://www.w3.org/2000/svg" xmlns:xlink="http://www.w3.org/1999/xlink" xml:space="preserve" xmlns:serif="http://www.serif.com/" style="fill-rule:evenodd;clip-rule:evenodd;stroke-miterlimit:10;">
    <g id="Layer_2" transform="matrix(1,0,0,1,5.805,19.2)">
        <g id="Layer_1-2">
            <g transform="matrix(1,0,0,1,0,13.6595)">
                <path d="M18.2,107.5C18.303,109.721 17.493,111.89 15.96,113.5C14.24,115.291 11.831,116.26 9.35,116.16C4.193,116.16 -0.05,111.917 -0.05,106.76C-0.05,101.603 4.193,97.36 9.35,97.36C10.633,97.351 11.907,97.588 13.1,98.06C14.208,98.489 15.198,99.174 15.99,100.06L14.33,101.72C13.751,101.028 13.013,100.486 12.18,100.14C11.284,99.765 10.321,99.574 9.35,99.58C7.48,99.531 5.671,100.255 4.35,101.58C1.686,104.48 1.686,108.99 4.35,111.89C5.668,113.218 7.48,113.942 9.35,113.89C10.977,113.949 12.571,113.412 13.83,112.38C15.044,111.329 15.787,109.833 15.89,108.23L9.35,108.23L9.35,106.07L18.08,106.07C18.162,106.542 18.203,107.021 18.2,107.5Z" style="fill:rgb(128,128,128);fill-rule:nonzero;"/>
            </g>
            <g transform="matrix(1,0,0,1,0,13.6595)">
                <path d="M20.29,109.61C20.231,107.869 20.873,106.175 22.07,104.91C23.258,103.68 24.91,103.004 26.62,103.05C28.325,102.998 29.974,103.675 31.15,104.91C32.36,106.169 33.013,107.864 32.96,109.61C33.021,111.357 32.367,113.055 31.15,114.31C29.974,115.545 28.325,116.222 26.62,116.17C24.91,116.216 23.258,115.54 22.07,114.31C20.873,113.045 20.231,111.351 20.29,109.61ZM22.6,109.61C22.551,110.793 22.967,111.95 23.76,112.83C24.513,113.602 25.547,114.039 26.625,114.039C27.703,114.039 28.737,113.602 29.49,112.83C30.28,111.949 30.693,110.792 30.64,109.61C30.692,108.437 30.278,107.29 29.49,106.42C28.754,105.618 27.714,105.161 26.625,105.161C25.536,105.161 24.496,105.618 23.76,106.42C22.969,107.289 22.552,108.436 22.6,109.61Z" style="fill:rgb(128,128,128);fill-rule:nonzero;"/>
            </g>
            <g transform="matrix(1,0,0,1,0,13.6595)">
                <path d="M41,121.6C40.344,121.603 39.692,121.516 39.06,121.34C38.478,121.168 37.922,120.916 37.41,120.59C36.928,120.284 36.5,119.903 36.14,119.46C35.789,119.028 35.518,118.537 35.34,118.01L37.53,117.1C37.768,117.803 38.228,118.41 38.84,118.83C39.471,119.275 40.228,119.506 41,119.49C42.116,119.566 43.212,119.153 44,118.36C44.72,117.486 45.078,116.369 45,115.24L45,114.06L44.9,114.06C44.459,114.723 43.848,115.255 43.13,115.6C42.381,115.982 41.551,116.177 40.71,116.17C39.117,116.18 37.598,115.488 36.56,114.28C35.421,112.995 34.81,111.326 34.85,109.61C34.822,107.91 35.44,106.262 36.58,105C38.202,103.112 40.915,102.554 43.15,103.65C43.866,104.002 44.477,104.537 44.92,105.2L45,105.2L45,103.49L47.22,103.49L47.22,115.28C47.315,116.995 46.704,118.676 45.53,119.93C44.313,121.083 42.674,121.688 41,121.6ZM41.07,114.06C42.137,114.092 43.164,113.64 43.86,112.83C45.361,110.966 45.361,108.284 43.86,106.42C43.169,105.601 42.142,105.137 41.07,105.16C40,105.147 38.977,105.609 38.28,106.42C37.511,107.3 37.107,108.442 37.15,109.61C37.101,110.779 37.507,111.922 38.28,112.8C38.984,113.62 40.02,114.082 41.1,114.06L41.07,114.06Z" style="fill:rgb(128,128,128);fill-rule:nonzero;"/>
            </g>
            <g transform="matrix(1,0,0,1,0,13.6595)">
                <rect x="50.55" y="97.77" width="2.32" height="18" style="fill:rgb(128,128,128);fill-rule:nonzero;"/>
            </g>
            <g transform="matrix(1,0,0,1,0,13.6595)">
                <path d="M61.59,116.17C59.9,116.22 58.268,115.542 57.11,114.31C55.927,113.037 55.294,111.347 55.35,109.61C55.294,107.885 55.907,106.204 57.06,104.92C58.22,103.726 59.815,103.051 61.48,103.051C63.096,103.051 64.648,103.687 65.8,104.82C66.96,106.217 67.54,108.008 67.42,109.82L67.42,110.08L57.72,110.08C57.705,111.173 58.139,112.225 58.92,112.99C59.648,113.701 60.627,114.1 61.645,114.1C63.142,114.1 64.512,113.239 65.16,111.89L67.22,112.89C66.694,113.901 65.898,114.745 64.92,115.33C63.909,115.911 62.756,116.202 61.59,116.17ZM57.89,108.17L65,108.17C64.962,107.356 64.602,106.589 64,106.04C63.296,105.453 62.396,105.153 61.48,105.2C60.658,105.185 59.858,105.469 59.23,106C58.557,106.54 58.085,107.29 57.89,108.13L57.89,108.17Z" style="fill:rgb(128,128,128);fill-rule:nonzero;"/>
            </g>
            <g transform="matrix(1,0,0,1,0,13.6595)">
                <path d="M86.83,111C86.879,112.466 86.234,113.872 85.09,114.79C83.876,115.745 82.364,116.244 80.82,116.2C79.394,116.22 78.002,115.758 76.87,114.89C75.714,113.991 74.884,112.736 74.51,111.32L76.72,110.42C76.862,110.933 77.074,111.425 77.35,111.88C77.608,112.296 77.925,112.673 78.29,113C78.648,113.304 79.053,113.547 79.49,113.72C79.927,113.901 80.397,113.993 80.87,113.99C81.803,114.032 82.721,113.742 83.46,113.17C84.118,112.647 84.49,111.84 84.46,111C84.473,110.265 84.17,109.559 83.63,109.06C82.777,108.358 81.785,107.843 80.72,107.55C79.28,107.03 78.38,106.68 78.03,106.55C76.293,105.833 75.156,104.129 75.16,102.25C75.153,100.936 75.737,99.687 76.75,98.85C77.843,97.909 79.249,97.41 80.69,97.45C81.955,97.403 83.204,97.753 84.26,98.45C85.204,99.059 85.91,99.973 86.26,101.04L84.1,101.95C83.896,101.276 83.478,100.686 82.91,100.27C82.275,99.818 81.509,99.586 80.73,99.61C79.906,99.585 79.099,99.851 78.45,100.36C77.855,100.781 77.506,101.471 77.52,102.2C77.519,102.815 77.781,103.401 78.24,103.81C79.319,104.52 80.499,105.063 81.74,105.42C83.218,105.826 84.565,106.608 85.65,107.69C86.441,108.608 86.862,109.789 86.83,111Z" style="fill:rgb(234,67,53);fill-rule:nonzero;"/>
            </g>
            <g transform="matrix(1,0,0,1,0,13.6595)">
                <path d="M94,116C93.077,116.032 92.178,115.698 91.5,115.07C90.813,114.389 90.448,113.446 90.5,112.48L90.5,105.59L88.29,105.59L88.29,103.48L90.45,103.48L90.45,99.68L92.76,99.68L92.76,103.45L95.76,103.45L95.76,105.56L92.76,105.56L92.76,111.7C92.69,112.298 92.863,112.9 93.24,113.37C93.53,113.65 93.917,113.807 94.32,113.81C94.502,113.811 94.684,113.788 94.86,113.74C95.029,113.705 95.193,113.651 95.35,113.58L96.08,115.64C95.413,115.879 94.709,116.001 94,116Z" style="fill:rgb(234,67,53);fill-rule:nonzero;"/>
            </g>
            <g transform="matrix(1,0,0,1,0,13.6595)">
                <path d="M97.66,109.61C97.604,107.868 98.249,106.174 99.45,104.91C100.636,103.677 102.29,103.001 104,103.05C105.702,103 107.346,103.677 108.52,104.91C110.924,107.564 110.924,111.656 108.52,114.31C107.346,115.543 105.702,116.22 104,116.17C102.29,116.219 100.636,115.543 99.45,114.31C98.249,113.046 97.604,111.352 97.66,109.61ZM99.97,109.61C99.921,110.793 100.337,111.95 101.13,112.83C101.883,113.602 102.917,114.039 103.995,114.039C105.073,114.039 106.107,113.602 106.86,112.83C107.653,111.95 108.069,110.793 108.02,109.61C108.068,108.436 107.651,107.289 106.86,106.42C106.124,105.618 105.084,105.161 103.995,105.161C102.906,105.161 101.866,105.618 101.13,106.42C100.35,107.294 99.944,108.44 100,109.61L99.97,109.61Z" style="fill:rgb(234,67,53);fill-rule:nonzero;"/>
            </g>
            <g transform="matrix(1,0,0,1,0,13.6595)">
                <path d="M118.58,116.17C116.87,116.219 115.216,115.543 114.03,114.31C112.839,113.04 112.195,111.35 112.24,109.61C112.184,107.868 112.829,106.174 114.03,104.91C115.216,103.677 116.87,103.001 118.58,103.05C120.94,102.978 123.105,104.398 123.98,106.59L121.87,107.47C121.357,106.027 119.949,105.085 118.42,105.16C117.364,105.165 116.362,105.633 115.68,106.44C114.175,108.276 114.175,110.944 115.68,112.78C116.396,113.601 117.433,114.072 118.522,114.072C120.03,114.072 121.399,113.167 121.99,111.78L124.06,112.66C123.635,113.725 122.891,114.633 121.93,115.26C120.928,115.887 119.762,116.203 118.58,116.17Z" style="fill:rgb(234,67,53);fill-rule:nonzero;"/>
            </g>
            <g transform="matrix(1,0,0,1,0,13.6595)">
                <path d="M137.4,115.77L134.61,115.77L130.77,110L128.88,111.86L128.88,115.86L126.57,115.86L126.57,97.86L128.88,97.86L128.88,108.94L134.21,103.54L137.21,103.54L137.21,103.64L132.41,108.42L137.41,115.76L137.4,115.77Z" style="fill:rgb(234,67,53);fill-rule:nonzero;"/>
            </g>
            <g transform="matrix(1,0,0,1,0,13.6595)">
                <path d="M148.39,112.35C148.388,113.428 147.862,114.44 146.98,115.06C145.962,115.825 144.712,116.217 143.44,116.17C142.273,116.186 141.129,115.836 140.17,115.17C139.252,114.551 138.552,113.659 138.17,112.62L140.23,111.74C140.493,112.43 140.952,113.028 141.55,113.46C142.101,113.863 142.767,114.08 143.45,114.08C144.1,114.102 144.743,113.935 145.3,113.6C145.729,113.381 146.011,112.951 146.04,112.47C146.04,111.68 145.43,111.1 144.23,110.73L142.12,110.21C139.72,109.6 138.52,108.45 138.52,106.74C138.495,105.668 139.01,104.653 139.89,104.04C141.83,102.772 144.321,102.68 146.35,103.8C147.184,104.264 147.836,104.998 148.2,105.88L146.14,106.74C145.901,106.218 145.497,105.789 144.99,105.52C144.448,105.223 143.838,105.071 143.22,105.08C142.648,105.073 142.086,105.229 141.6,105.53C141.176,105.741 140.9,106.167 140.88,106.64C140.88,107.34 141.55,107.84 142.88,108.15L144.74,108.62C147.173,109.253 148.39,110.497 148.39,112.35Z" style="fill:rgb(234,67,53);fill-rule:nonzero;"/>
            </g>
            <path d="M112.19,47.8C112.19,59.18 108.817,68.247 102.07,75C94.483,83.04 84.507,87.06 72.14,87.06C60.879,87.273 50.015,82.823 42.14,74.77C33.92,66.583 29.81,56.493 29.81,44.5C29.81,32.507 33.907,22.42 42.1,14.24C49.991,6.191 60.871,1.758 72.14,2C77.958,1.96 83.73,3.04 89.14,5.18C94.149,7.106 98.632,10.19 102.22,14.18L94.71,21.69C92.087,18.571 88.748,16.132 84.98,14.58C80.923,12.847 76.552,11.968 72.14,12C63.683,11.831 55.522,15.171 49.61,21.22C43.537,27.44 40.503,35.213 40.51,44.54C40.517,53.867 43.55,61.643 49.61,67.87C55.525,73.916 63.684,77.255 72.14,77.09C80.26,77.09 87.013,74.813 92.4,70.26C97.787,65.707 100.897,59.447 101.73,51.48L72.14,51.48L72.14,41.66L111.63,41.66C111.993,43.687 112.18,45.741 112.19,47.8Z" style="fill:rgb(234,67,53);fill-rule:nonzero;"/>
            <path d="M49.93,47.7L76.03,22.13L91.73,33.77L122.18,4.15" style="fill:none;fill-rule:nonzero;stroke:rgb(234,67,53);stroke-width:5px;"/>
            <path d="M120.95,17.17L121.12,5.18L109.13,5.02L114.28,0L126.27,0.16L126.11,12.15L120.95,17.17Z" style="fill:rgb(234,67,53);fill-rule:nonzero;"/>
        </g>
    </g>
</svg>

<svg xmlns="http://www.w3.org/2000/svg" viewBox="0 0 148.39 121.6"><defs><style>.cls-1{fill:gray;}.cls-2{fill:#ea4335;}.cls-3{fill:none;stroke:#ea4335;stroke-miterlimit:10;stroke-width:5px;}</style></defs><title>branch_iconAsset 16</title><g id="Layer_2" data-name="Layer 2"><g id="Layer_1-2" data-name="Layer 1"><path class="cls-1" d="M18.2,107.5a8.15,8.15,0,0,1-2.24,6,8.68,8.68,0,0,1-6.61,2.66,9.4,9.4,0,1,1,0-18.8,10,10,0,0,1,3.75.7,7.51,7.51,0,0,1,2.89,2l-1.66,1.66a5.61,5.61,0,0,0-2.15-1.58,7.22,7.22,0,0,0-2.83-.56,6.81,6.81,0,0,0-5,2,7.62,7.62,0,0,0,0,10.31,6.78,6.78,0,0,0,5,2,6.69,6.69,0,0,0,4.48-1.51,6,6,0,0,0,2.06-4.15H9.35v-2.16h8.73A8.07,8.07,0,0,1,18.2,107.5Z"/><path class="cls-1" d="M20.29,109.61a6.52,6.52,0,0,1,1.78-4.7,6.1,6.1,0,0,1,4.55-1.86,6,6,0,0,1,4.53,1.86,6.5,6.5,0,0,1,1.81,4.7,6.43,6.43,0,0,1-1.81,4.7,6,6,0,0,1-4.53,1.86,6.1,6.1,0,0,1-4.55-1.86A6.52,6.52,0,0,1,20.29,109.61Zm2.31,0a4.53,4.53,0,0,0,1.16,3.22,4,4,0,0,0,5.73,0,4.52,4.52,0,0,0,1.15-3.22,4.46,4.46,0,0,0-1.15-3.19,3.89,3.89,0,0,0-5.73,0A4.47,4.47,0,0,0,22.6,109.61Z"/><path class="cls-1" d="M41,121.6a7.11,7.11,0,0,1-1.94-.26,6.52,6.52,0,0,1-1.65-.75,5.28,5.28,0,0,1-1.27-1.13,4.67,4.67,0,0,1-.8-1.45l2.19-.91a3.43,3.43,0,0,0,1.31,1.73,3.62,3.62,0,0,0,2.16.66A3.86,3.86,0,0,0,44,118.36,4.43,4.43,0,0,0,45,115.24v-1.18h-.1a4.43,4.43,0,0,1-1.77,1.54,5.23,5.23,0,0,1-2.42.57,5.43,5.43,0,0,1-4.15-1.89,6.8,6.8,0,0,1-1.71-4.67A6.71,6.71,0,0,1,36.58,105a5.48,5.48,0,0,1,6.57-1.35,4.53,4.53,0,0,1,1.77,1.55H45v-1.71h2.22v11.79a6.29,6.29,0,0,1-1.69,4.65A6.12,6.12,0,0,1,41,121.6Zm.07-7.54a3.54,3.54,0,0,0,2.79-1.23,5.11,5.11,0,0,0,0-6.41,3.55,3.55,0,0,0-2.79-1.26,3.62,3.62,0,0,0-2.79,1.26,4.59,4.59,0,0,0-1.13,3.19,4.54,4.54,0,0,0,1.13,3.19A3.62,3.62,0,0,0,41.1,114.06Z"/><path class="cls-1" d="M52.87,97.77v18H50.55v-18Z"/><path class="cls-1" d="M61.59,116.17a5.91,5.91,0,0,1-4.48-1.86,6.59,6.59,0,0,1-1.76-4.7,6.69,6.69,0,0,1,1.71-4.69,6.16,6.16,0,0,1,8.74-.1,7.09,7.09,0,0,1,1.62,5l0,.26H57.72a4,4,0,0,0,1.2,2.91,3.9,3.9,0,0,0,6.24-1.1l2.06,1a6.15,6.15,0,0,1-2.3,2.44A6.33,6.33,0,0,1,61.59,116.17Zm-3.7-8H65a3.08,3.08,0,0,0-1-2.13,3.64,3.64,0,0,0-2.52-.84,3.39,3.39,0,0,0-2.25.8A3.85,3.85,0,0,0,57.89,108.13Z"/><path class="cls-2" d="M86.83,111a4.66,4.66,0,0,1-1.74,3.79,6.6,6.6,0,0,1-4.27,1.41,6.34,6.34,0,0,1-3.95-1.31,6.69,6.69,0,0,1-2.36-3.57l2.21-.9a5.81,5.81,0,0,0,.63,1.46,5.13,5.13,0,0,0,.94,1.12,4.31,4.31,0,0,0,1.2.72,3.54,3.54,0,0,0,1.38.27,3.94,3.94,0,0,0,2.59-.82,2.65,2.65,0,0,0,1-2.17,2.58,2.58,0,0,0-.83-1.94,7.86,7.86,0,0,0-2.91-1.51c-1.44-.52-2.34-.87-2.69-1a4.64,4.64,0,0,1-2.87-4.3,4.38,4.38,0,0,1,1.59-3.4,5.79,5.79,0,0,1,3.94-1.4,6.07,6.07,0,0,1,3.57,1,4.9,4.9,0,0,1,2,2.59l-2.16.91a3.25,3.25,0,0,0-1.19-1.68,3.57,3.57,0,0,0-2.18-.66,3.52,3.52,0,0,0-2.28.75,2.2,2.2,0,0,0-.93,1.84,2.15,2.15,0,0,0,.72,1.61,12.78,12.78,0,0,0,3.5,1.61,8.86,8.86,0,0,1,3.91,2.27A4.87,4.87,0,0,1,86.83,111Z"/><path class="cls-2" d="M94,116a3.5,3.5,0,0,1-2.5-.93,3.39,3.39,0,0,1-1-2.59v-6.89H88.29v-2.11h2.16V99.68h2.31v3.77h3v2.11h-3v6.14a2.25,2.25,0,0,0,.48,1.67,1.57,1.57,0,0,0,1.08.44,2,2,0,0,0,.54-.07,2.35,2.35,0,0,0,.49-.16l.73,2.06A6.15,6.15,0,0,1,94,116Z"/><path class="cls-2" d="M97.66,109.61a6.52,6.52,0,0,1,1.79-4.7,6.07,6.07,0,0,1,4.55-1.86,6,6,0,0,1,4.52,1.86,7,7,0,0,1,0,9.4,6,6,0,0,1-4.52,1.86,6.07,6.07,0,0,1-4.55-1.86A6.52,6.52,0,0,1,97.66,109.61Zm2.31,0a4.53,4.53,0,0,0,1.16,3.22,4,4,0,0,0,5.73,0,4.53,4.53,0,0,0,1.16-3.22,4.47,4.47,0,0,0-1.16-3.19,3.89,3.89,0,0,0-5.73,0A4.47,4.47,0,0,0,100,109.61Z"/><path class="cls-2" d="M118.58,116.17a6.07,6.07,0,0,1-4.55-1.86,6.62,6.62,0,0,1-1.79-4.7,6.52,6.52,0,0,1,1.79-4.7,6.07,6.07,0,0,1,4.55-1.86,5.63,5.63,0,0,1,5.4,3.54l-2.11.88a3.48,3.48,0,0,0-3.45-2.31,3.61,3.61,0,0,0-2.74,1.28,5,5,0,0,0,0,6.34,3.77,3.77,0,0,0,6.31-1l2.07.88a5.57,5.57,0,0,1-2.13,2.6A6,6,0,0,1,118.58,116.17Z"/><path class="cls-2" d="M137.4,115.77h-2.79L130.77,110l-1.89,1.86v4h-2.31v-18h2.31v11.08l5.33-5.4h3v.1l-4.8,4.78,5,7.34Z"/><path class="cls-2" d="M148.39,112.35a3.32,3.32,0,0,1-1.41,2.71,5.55,5.55,0,0,1-3.54,1.11,5.6,5.6,0,0,1-3.27-1,5.27,5.27,0,0,1-2-2.55l2.06-.88a3.78,3.78,0,0,0,1.32,1.72,3.22,3.22,0,0,0,1.9.62,3.37,3.37,0,0,0,1.85-.48,1.36,1.36,0,0,0,.74-1.13c0-.79-.61-1.37-1.81-1.74l-2.11-.52c-2.4-.61-3.6-1.76-3.6-3.47a3.2,3.2,0,0,1,1.37-2.7,6.27,6.27,0,0,1,6.46-.24,4.22,4.22,0,0,1,1.85,2.08l-2.06.86a2.61,2.61,0,0,0-1.15-1.22,3.57,3.57,0,0,0-1.77-.44,3,3,0,0,0-1.62.45,1.3,1.3,0,0,0-.72,1.11c0,.7.67,1.2,2,1.51l1.86.47Q148.39,109.57,148.39,112.35Z"/><path class="cls-2" d="M112.19,47.8q0,17.07-10.12,27.2Q90.69,87.06,72.14,87.06a40.88,40.88,0,0,1-30-12.29Q29.81,62.49,29.81,44.5T42.1,14.24A40.84,40.84,0,0,1,72.14,2a45.38,45.38,0,0,1,17,3.18,34,34,0,0,1,13.08,9l-7.51,7.51a25.31,25.31,0,0,0-9.73-7.11A32.09,32.09,0,0,0,72.14,12a30.65,30.65,0,0,0-22.53,9.22q-9.11,9.33-9.1,23.32t9.1,23.33a30.68,30.68,0,0,0,22.53,9.22q12.18,0,20.26-6.83t9.33-18.78H72.14V41.66h39.49A35.76,35.76,0,0,1,112.19,47.8Z"/><polyline class="cls-3" points="49.93 47.7 76.03 22.13 91.73 33.77 122.18 4.15"/><polygon class="cls-2" points="120.95 17.17 121.12 5.18 109.13 5.02 114.28 0 126.27 0.16 126.11 12.15 120.95 17.17"/></g></g></svg>
